Origami/32x32/apps/protonmail-desktop.svg

<svg width="32" height="32" version="1" xmlns="http://www.w3.org/2000/svg">
 <path d="M 30,17 A 14,14 0 0 1 16,31 14,14 0 0 1 2,17 14,14 0 0 1 16,3 14,14 0 0 1 30,17 Z" style="opacity:.2"/>
 <path d="M 30,16 A 14,14 0 0 1 16,30 14,14 0 0 1 2,16 14,14 0 0 1 16,2 14,14 0 0 1 30,16 Z" style="fill:#4f4f4f"/>
 <path d="m16 9c-0.376405 0-0.754439 0.016971-0.994141 0.052734-2.893265 0.4315301-4.602964 1.8938256-4.945312 4.2265626-0.03782 0.257736-0.04861 0.715323-0.05469 2.46875l-0.005857 2.0820314 0.08398 0.138672c0.207221 0.343093 0.493264 0.583776 1.855469 1.5625 2.277388 1.636272 3.212569 2.234165 3.789063 2.416016 0.09098 0.0287 0.21673 0.0519 0.279296 0.05273 0.382606 0.0053 1.501514-0.643479 3.195313-1.855469 2.112288-1.511443 2.503135-1.825343 2.708984-2.167969l0.087895-0.14648v-1.71875c0-2.240483-0.01403-2.637028-0.115234-3.117187-0.180481-0.856283-0.509756-1.531837-1.033204-2.121094-0.840184-0.9458171-2.154209-1.5659876-3.859374-1.8203126-0.23971-0.03575-0.615783-0.0527344-0.992188-0.0527344zm0 3c1.999997 9e-6 2.545045 1.178874 2.931641 2.623047 0.06807 0.25426 0.06836 0.264618 0.06836 1.298828 0 0.573422-0.0078 1.052891-0.01758 1.064453-0.0098 0.01154-1.346061 0.01606-2.982422 0.01172-1.636361 0.0044-2.972623-1.59e-4 -2.982422-0.01172-0.009799-0.01156-0.017577-0.491031-0.017577-1.064453 0-1.03421 3.19e-4 -1.044568 0.06836-1.298828 0.3866-1.444173 0.931643-2.623056 2.93164-2.623047zm-5.998047 7s-0.00572 0.587641 2e-3 2.775391l0.0098 2.6875 0.08984 0.167968c0.06931 0.128895 0.125514 0.187587 0.238281 0.253907l0.148437 0.08789 2.390625 0.01367c1.314817 0.0079 3.775246 0.01447 5.46875 0.01367l3.080079-2e-3 0.148437-0.0625c0.19133-0.08219 0.247244-0.132473 0.335937-0.298828l0.07227-0.134766 0.0039-2.451172 0.009691-3.05073h-0.03906l-0.04883 0.08008c-0.20585 0.333837-0.596697 0.63864-2.708985 2.111326-1.693798 1.180911-2.812707 1.813794-3.195313 1.808594-0.06257-8e-4 -0.188315-0.02476-0.279296-0.05273-0.576494-0.17719-1.511675-0.757249-3.789063-2.351563-1.362207-0.953626-1.648249-1.189142-1.855469-1.523437l-0.044922-0.07227h-0.03711z" style="opacity:.2"/>
 <path d="m16 8c-0.376405 0-0.754439 0.0169714-0.994141 0.0527344-2.893265 0.4315301-4.602964 1.8938258-4.945312 4.2265626-0.03782 0.257736-0.048608 0.715323-0.054688 2.46875l-0.005859 2.082031 0.083984 0.138672c0.207221 0.343093 0.493264 0.583776 1.855469 1.5625 2.277388 1.636272 3.212569 2.234165 3.789063 2.416016 0.09098 0.0287 0.21673 0.051904 0.279296 0.052734 0.382606 0.0053 1.501514-0.643479 3.195313-1.855469 2.112288-1.511443 2.503135-1.825343 2.708984-2.167969l0.087891-0.146484v-1.71875c0-2.240483-0.01403-2.637028-0.115234-3.117187-0.180481-0.856283-0.509756-1.531837-1.033204-2.1210941-0.840184-0.945817-2.154209-1.5659875-3.859374-1.8203125-0.23971-0.03575-0.615783-0.0527344-0.992188-0.0527344zm0 3c1.999997 9e-6 2.545045 1.178874 2.931641 2.623047 0.06807 0.25426 0.068359 0.264618 0.068359 1.298828 0 0.573422-0.007798 1.052891-0.017578 1.064453-0.0098 0.01154-1.346061 0.016059-2.982422 0.011719-1.636361 0.0044-2.972623-1.59e-4 -2.982422-0.011719-0.0098-0.01156-0.017578-0.491031-0.017578-1.064453 0-1.03421 3.19e-4 -1.044568 0.068359-1.298828 0.386601-1.444173 0.931644-2.623056 2.931641-2.623047zm-5.998047 7s-0.0057167 0.587641 0.001953 2.775391l0.009766 2.6875 0.089844 0.167968c0.06931 0.128895 0.125514 0.187587 0.238281 0.253907l0.148437 0.08789 2.390625 0.013672c1.314817 0.0079 3.775246 0.014472 5.46875 0.013672l3.080079-0.001953 0.148437-0.0625c0.19133-0.08219 0.247244-0.132473 0.335937-0.298828l0.072266-0.134766 0.003906-2.451172 0.009766-3.050781h-0.039062l-0.048829 0.080078c-0.205849 0.333839-0.596696 0.638642-2.708984 2.111328-1.693798 1.180911-2.812707 1.813794-3.195313 1.808594-0.062569-8e-4 -0.188315-0.024764-0.279296-0.052734-0.576494-0.17719-1.511675-0.757249-3.789063-2.351563-1.362207-0.953626-1.648249-1.189142-1.855469-1.523437l-0.044922-0.072266h-0.037109z" style="fill:#ffffff"/>
 <path d="M 16 2 A 14 14 0 0 0 2 16 A 14 14 0 0 0 2.0214844 16.585938 A 14 14 0 0 1 16 3 A 14 14 0 0 1 29.978516 16.414062 A 14 14 0 0 0 30 16 A 14 14 0 0 0 16 2 z" style="fill:#ffffff;opacity:.1"/>
</svg>

<svg xmlns="http://www.w3.org/2000/svg" width="32" height="32" version="1">
 <path d="M 30,17 A 14,14 0 0 1 16,31 14,14 0 0 1 2,17 14,14 0 0 1 16,3 14,14 0 0 1 30,17 Z" style="opacity:0.2"/>
 <path style="fill:#4f4f4f" d="M 30,16 A 14,14 0 0 1 16,30 14,14 0 0 1 2,16 14,14 0 0 1 16,2 14,14 0 0 1 30,16 Z"/>
 <path d="m 16,9 c -0.376405,0 -0.754439,0.016971 -0.994141,0.052734 -2.893265,0.4315301 -4.602964,1.8938256 -4.945312,4.2265626 -0.03782,0.257736 -0.04861,0.715323 -0.05469,2.46875 L 10,17.830078 l 0.08398,0.138672 c 0.207221,0.343093 0.493264,0.583776 1.855469,1.5625 2.277388,1.636272 3.212569,2.234165 3.789063,2.416016 0.09098,0.0287 0.21673,0.0519 0.279296,0.05273 0.382606,0.0053 1.501514,-0.643479 3.195313,-1.855469 2.112288,-1.511443 2.503135,-1.825343 2.708984,-2.167969 L 22,17.830078 22,16.111328 C 22,13.870845 21.98597,13.4743 21.884766,12.994141 21.704285,12.137858 21.37501,11.462304 20.851562,10.873047 20.011378,9.9272299 18.697353,9.3070594 16.992188,9.0527344 16.752478,9.0169844 16.376405,9 16,9 Z m 0,3 c 1.999997,9e-6 2.545045,1.178874 2.931641,2.623047 0.06807,0.25426 0.06836,0.264618 0.06836,1.298828 0,0.573422 -0.0078,1.052891 -0.01758,1.064453 -0.0098,0.01154 -1.346061,0.01606 -2.982422,0.01172 -1.636361,0.0044 -2.972623,-1.59e-4 -2.982422,-0.01172 C 13.007778,16.974768 13,16.495297 13,15.921875 c 0,-1.03421 3.19e-4,-1.044568 0.06836,-1.298828 C 13.45496,13.178874 14.000003,11.999991 16,12 Z m -5.998047,7 c 0,0 -0.00572,0.587641 0.002,2.775391 l 0.0098,2.6875 0.08984,0.167968 c 0.06931,0.128895 0.125514,0.187587 0.238281,0.253907 l 0.148437,0.08789 2.390625,0.01367 c 1.314817,0.0079 3.775246,0.01447 5.46875,0.01367 l 3.080079,-0.002 0.148437,-0.0625 c 0.19133,-0.08219 0.247244,-0.132473 0.335937,-0.298828 l 0.07227,-0.134766 0.0039,-2.451172 L 22,19 l -0.03906,0 -0.04883,0.08008 C 21.70626,19.413917 21.315413,19.71872 19.203125,21.191406 17.509327,22.372317 16.390418,23.0052 16.007812,23 c -0.06257,-8e-4 -0.188315,-0.02476 -0.279296,-0.05273 -0.576494,-0.17719 -1.511675,-0.757249 -3.789063,-2.351563 -1.362207,-0.953626 -1.648249,-1.189142 -1.855469,-1.523437 L 10.039062,19 l -0.03711,0 z" style="opacity:0.2"/>
 <path style="fill:#ffffff" d="M 16 8 C 15.623595 8 15.245561 8.0169714 15.005859 8.0527344 C 12.112594 8.4842645 10.402895 9.9465602 10.060547 12.279297 C 10.022727 12.537033 10.011939 12.99462 10.005859 14.748047 L 10 16.830078 L 10.083984 16.96875 C 10.291205 17.311843 10.577248 17.552526 11.939453 18.53125 C 14.216841 20.167522 15.152022 20.765415 15.728516 20.947266 C 15.819496 20.975966 15.945246 20.99917 16.007812 21 C 16.390418 21.0053 17.509326 20.356521 19.203125 19.144531 C 21.315413 17.633088 21.70626 17.319188 21.912109 16.976562 L 22 16.830078 L 22 15.111328 C 22 12.870845 21.98597 12.4743 21.884766 11.994141 C 21.704285 11.137858 21.37501 10.462304 20.851562 9.8730469 C 20.011378 8.9272299 18.697353 8.3070594 16.992188 8.0527344 C 16.752478 8.0169844 16.376405 8 16 8 z M 16 11 C 17.999997 11.000009 18.545045 12.178874 18.931641 13.623047 C 18.999711 13.877307 19 13.887665 19 14.921875 C 19 15.495297 18.992202 15.974766 18.982422 15.986328 C 18.972622 15.997868 17.636361 16.002387 16 15.998047 C 14.363639 16.002447 13.027377 15.997888 13.017578 15.986328 C 13.007778 15.974768 13 15.495297 13 14.921875 C 13 13.887665 13.000319 13.877307 13.068359 13.623047 C 13.45496 12.178874 14.000003 10.999991 16 11 z M 10.001953 18 C 10.001953 18 9.9962363 18.587641 10.003906 20.775391 L 10.013672 23.462891 L 10.103516 23.630859 C 10.172826 23.759754 10.22903 23.818446 10.341797 23.884766 L 10.490234 23.972656 L 12.880859 23.986328 C 14.195676 23.994228 16.656105 24.0008 18.349609 24 L 21.429688 23.998047 L 21.578125 23.935547 C 21.769455 23.853357 21.825369 23.803074 21.914062 23.636719 L 21.986328 23.501953 L 21.990234 21.050781 L 22 18 L 21.960938 18 L 21.912109 18.080078 C 21.70626 18.413917 21.315413 18.71872 19.203125 20.191406 C 17.509327 21.372317 16.390418 22.0052 16.007812 22 C 15.945243 21.9992 15.819497 21.975236 15.728516 21.947266 C 15.152022 21.770076 14.216841 21.190017 11.939453 19.595703 C 10.577246 18.642077 10.291204 18.406561 10.083984 18.072266 L 10.039062 18 L 10.001953 18 z"/>
 <path style="fill:#ffffff;opacity:0.1" d="M 16 2 A 14 14 0 0 0 2 16 A 14 14 0 0 0 2.0214844 16.585938 A 14 14 0 0 1 16 3 A 14 14 0 0 1 29.978516 16.414062 A 14 14 0 0 0 30 16 A 14 14 0 0 0 16 2 z"/>
</svg>
